X:1
T:Port-au-Prince, 87.87 D
T:Judson, 1881
T:Port-au-Prince, 87.87 D
T:Public Domain
C:Judson, 1881
Z:Public Domain
%%score ( 1 2 ) ( 3 4 )
L:1/8
M:9/8
K:G
V:1 treble 
V:2 treble 
V:3 bass 
V:4 bass 
V:1
 (DG)[DA] | [DB]3- [DB]2 [GB] (BA)[DF] | [DG]3 D2 z (GB)[Fc] | [Gd]3- [Gd]2 [GB] (ed)[GB] | %4
 [FA]3- [FA]2 z (DG)[DA] | [DB]3- [DB]2 [GB] (BA)[DF] | [DG]3 D2 z (EF)[CG] | %7
 [B,D]2 [B,G] [DB]3 [CA]3 | [B,G]3- [B,G]2 z G2 G | E2 E [EG]2 [^DF] (E[DF])[EG] | %10
 [^DF]3 [DB]2 z B2 B | D2 D [DB]2 [Dd] (GF)[E^c] | [Fd]3- [Fd]2 z (DG)[DA] | %13
 [DB]3- [DB]2 [GB] (BA)[DF] | [DG]3 D2 z (EF)[CG] | [B,D]2 [B,G] [DB]3 [CA]3 | [B,G]3- [B,G]2 z |] %17
V:2
 D2 x | x6 F2 x | x3 D2 D2 x2 | x6 G2 x | x6 D2 x | x6 F2 x | x3 D2 C2 x2 | x9 | x9 | G3- x E x4 | %10
 x9 | B3- x d2 x3 | x6 D2 x | x6 F2 x | x3 D2 C2 x2 | x9 | x6 |] %17
V:3
 [G,B,]2 [G,C] | [G,D]3- [G,D]2 [G,,D] (DC)[D,A,] | [G,,G,B,]3 [G,,G,B,]2 z (B,D)[A,D] | %3
 [B,D]3- [B,D]2 [G,D] (C[B,D])[G,D] | [D,D]3- [D,D]2 z [G,B,]2 [G,C] | %5
 [G,D]3- [G,D]2 [G,,D] (DC)[D,A,] | [G,,G,B,]3 [G,,G,B,]2 z (C,D,)[E,G,] | %7
 G,2 [E,G,] [D,G,]3 [D,F,]3 | [G,,G,]3- [G,,G,]2 z4 | [E,B,]2 [E,B,] [E,B,]2 [F,B,] (G,F,)[E,B,] | %10
 [B,,B,]3 [B,,B,]2 z4 | [G,B,]2 [G,B,] [G,B,]2 [F,A,] ([E,B,]A,)[A,,A,] | %12
 [D,A,]3- [D,A,]2 z [G,B,]2 [G,C] | [G,D]3- [G,D]2 [G,,D] (DC)[D,A,] | %14
 [G,,G,B,]3 [G,,G,B,]2 z (C,D,)[E,G,] | G,2 [E,G,] [D,G,]3 [D,F,]3 | [G,,G,]3- [G,,G,]2 z |] %17
V:4
 x3 | x6 D,2 x | x6 G,2 x | x6 C x2 | x9 | x6 D,2 x | x6 G,2 x | G,2 x7 | x9 | x6 B,2 x | x9 | %11
 x7 A, x | x9 | x6 D,2 x | x6 G,2 x | G,2 x7 | x6 |] %17

